!!!SOCIAL_FUNCTION:	dance songs
!!!PDT:	1943
!!!OTL: No_47_Dance_Song_From_Babine.krn
!!!REG: British Columbia
**kern
*staff1
=1-
*clefF4
*k[b-]
*M2/4
4r
8.r
16D\
=2
[2d\
=3
4d\_
8.d\L]
16f\Jk
=4||
*M3/8
4d\
8c\
=5||
*M2/4
8B-\L
8G\J
4F\
=6
4D\
4r
=7
4D\
4F\
=8
4.G\
8G\
=9
2F\
=10
2D\
=11
[2D\
=12
4D\]
8.r
16D\
=13
[2d\
=14
4d\_
8.d\L]
16f\Jk
=15||
*M3/8
4d\
8c\
=16||
*M2/4
8B-\L
8G\J
4F\
=17
4D\
4r
=18
4D\
4F\
=19
4.G\
8G\
=20
2F\
=21
[2D\
=22
4D\]
4r
=23
4D\
4F\
=24
16G\LK
[8.F\J
4F\_
=25
2F\]
=26
2G\
=27
16G\LK
[8.F\J
4F\]
=28
[2D\
=29
2D\]
==
*-
